!!!SOCIAL_FUNCTION:	songs for children
!!!PDT:	1932
!!!OTL: No_140_Lullaby_(b).krn
!!!REG: Wisconsin
!!!LANG: Non-Tone
!!!LING_GROUP: Algonquin
**kern
*staff1
=1-
*k[b-e-a-]
*M3/4
2r
4g/
=2
4.b-\
8cc\
4b-\
=3||
*M2/4
4g/
4f/
=4||
*M3/4
4e-/
4r
8e-/L
8e-/J
=5
4.g/
8b-\
4g/
=6
4f/
8e-/
8r
4c/
=7
4.B-/
8r
8e-/
8r
=8||
*M2/4
4.g/
8b-\
=9
4g/
8f/
8r
=10
4g/
4f/
=11
4e-/
4r
=12
8g/L
8e-/J
4g/
=13||
*M3/4
4.b-\
8cc\
4b-\
=14||
*M2/4
4g/
8f/
8r
=15
2e-/
==
*-
